deploy/geobrabant/styles/geobrabant/images/icon-f.svg

<?xml version="1.0" encoding="UTF-8" standalone="no"?><svg width="33px" height="33px" viewBox="0 0 33 33" version="1.1" xmlns="http://www.w3.org/2000/svg" xmlns:xlink="http://www.w3.org/1999/xlink" xmlns:sketch="http://www.bohemiancoding.com/sketch/ns">    <!-- Generator: Sketch 3.2.2 (9983) - http://www.bohemiancoding.com/sketch -->    <title>F_icon</title>    <desc>Created with Sketch.</desc>    <defs></defs>    <g id="Home" stroke="none" stroke-width="1" fill="none" fill-rule="evenodd" sketch:type="MSPage">        <g id="Desktop-HD-2" sketch:type="MSArtboardGroup" transform="translate(-949.000000, -34.000000)">            <g id="F_icon" sketch:type="MSLayerGroup" transform="translate(949.000000, 34.000000)">                <path d="M31.099251,32.9117027 C32.0999537,32.9117027 32.9114479,32.1002085 32.9114479,31.099251 L32.9114479,1.88724324 C32.9114479,0.886158301 32.1000811,0.0749189189 31.099251,0.0749189189 L1.88724324,0.0749189189 C0.886158301,0.0749189189 0.0749189189,0.886158301 0.0749189189,1.88724324 L0.0749189189,31.099251 C0.0749189189,32.1000811 0.886030888,32.9117027 1.88724324,32.9117027 L31.099251,32.9117027 L31.099251,32.9117027 Z" id="Blue_1_" fill="#4C6FAA" sketch:type="MSShapeGroup"></path>                <path d="M22.7316486,32.9117027 L22.7316486,20.1954903 L26.999861,20.1954903 L27.6389653,15.2397568 L22.7316486,15.2397568 L22.7316486,12.075834 C22.7316486,10.6410347 23.1300695,9.66326641 25.1875367,9.66326641 L27.8117375,9.66211969 L27.8117375,5.22967181 C27.3578919,5.16927799 25.800139,5.03434749 23.9878147,5.03434749 C20.2042819,5.03434749 17.613973,7.34383784 17.613973,11.5850386 L17.613973,15.2397568 L13.3348031,15.2397568 L13.3348031,20.1954903 L17.613973,20.1954903 L17.613973,32.9117027 L22.7316486,32.9117027 L22.7316486,32.9117027 Z" id="f" fill="#FFFFFF" sketch:type="MSShapeGroup"></path>            </g>        </g>    </g></svg>

<svg width="33" height="33" viewBox="0 0 33 33" xmlns="http://www.w3.org/2000/svg" xmlns:sketch="http://www.bohemiancoding.com/sketch/ns"><title>F_icon</title><desc>Created with Sketch.</desc><g sketch:type="MSLayerGroup" fill="none"><path d="M31.099 32.912c1.001 0 1.812-.811 1.812-1.812v-29.212c0-1.001-.811-1.812-1.812-1.812h-29.212c-1.001 0-1.812.811-1.812 1.812v29.212c0 1.001.811 1.812 1.812 1.812h29.212z" fill="#4C6FAA" sketch:type="MSShapeGroup"/><path d="M22.732 32.912v-12.716h4.268l.639-4.956h-4.907v-3.164c0-1.435.398-2.413 2.456-2.413l2.624-.001v-4.432c-.454-.06-2.012-.195-3.824-.195-3.784 0-6.374 2.309-6.374 6.551v3.655h-4.279v4.956h4.279v12.716h5.118z" fill="#fff" sketch:type="MSShapeGroup"/></g></svg>
